; G-Code generated by Simplify3D(R) Version 2.2.2
; Apr 7, 2015 at 10:43:24 AM
; Settings Summary
;   processName,Process1
;   applyToModels,FFF
;   profileLabel,LulzBot TAZ 4
;   printMaterial,ABS
;   printQuality,High
;   extruderName,Primary Extruder
;   extruderToolheadNumber,0
;   extruderDiameter,0.35
;   extruderAutoWidth,1
;   extruderWidth,0.42
;   extrusionMultiplier,1
;   extruderUseRetract,1
;   extruderRetractionDistance,1.7
;   extruderExtraRestartDistance,0
;   extruderRetractionZLift,0
;   extruderRetractionSpeed,1800
;   extruderUseCoasting,0
;   extruderCoastingDistance,0.2
;   extruderUseWipe,0
;   extruderWipeDistance,5
;   primaryExtruder,0
;   layerHeight,0.1
;   topSolidLayers,4
;   bottomSolidLayers,4
;   perimeterOutlines,2
;   printPerimetersInsideOut,1
;   startPointOption,2
;   startPointOriginX,0
;   startPointOriginY,0
;   startPointOriginZ,300
;   sequentialIslands,0
;   spiralVaseMode,0
;   firstLayerHeightPercentage,90
;   firstLayerWidthPercentage,100
;   firstLayerUnderspeed,0.5
;   useRaft,0
;   raftExtruder,0
;   raftLayers,2
;   raftOffset,3
;   raftSeparationDistance,0.14
;   raftInfill,85
;   disableRaftBaseLayers,0
;   useSkirt,1
;   skirtExtruder,0
;   skirtLayers,2
;   skirtOutlines,2
;   skirtOffset,6
;   infillExtruder,0
;   externalInfillPattern,Rectilinear
;   infillPercentage,70
;   outlineOverlapPercentage,15
;   infillExtrusionWidthPercentage,200
;   minInfillLength,5
;   infillLayerInterval,1
;   randomInfillStartPoint,0
;   infillAngles,45,-45
;   generateSupport,1
;   supportExtruder,0
;   supportInfill,40
;   supportExtraInflation,0
;   denseSupportLayers,0
;   denseSupportInfill,70
;   supportLayerInterval,1
;   supportHorizontalPartOffset,0.3
;   supportUpperSeparationLayers,1
;   supportLowerSeparationLayers,1
;   supportGridSpacing,3
;   maxOverhangAngle,45
;   supportAngles,0
;   temperatureName,Primary Extruder,Heated Bed
;   temperatureNumber,0,1
;   temperatureSetpointCount,1,2
;   temperatureSetpointLayers,1,1,10
;   temperatureSetpointTemperatures,230,90,90
;   temperatureStabilizeAtStartup,1,1
;   temperatureHeatedBed,0,1
;   temperatureRelayBetweenLayers,0,0
;   temperatureRelayBetweenLoops,0,0
;   fanLayers,1
;   fanSpeeds,0
;   blipFanToFullPower,1
;   adjustSpeedForCooling,1
;   minSpeedLayerTime,15
;   minCoolingSpeedSlowdown,20
;   increaseFanForCooling,0
;   minFanLayerTime,45
;   maxCoolingFanSpeed,100
;   increaseFanForBridging,0
;   bridgingFanSpeed,100
;   use5D,1
;   relativeEdistances,0
;   allowEaxisZeroing,1
;   independentExtruderAxes,0
;   includeM10123,0
;   stickySupport,1
;   detectArcs,0
;   arcReplaceG2G3,0
;   arcRadialCompensation,1
;   gcodeXoffset,0
;   gcodeYoffset,0
;   gcodeZoffset,0
;   overrideMachineDefinition,1
;   machineTypeOverride,0
;   strokeXoverride,298
;   strokeYoverride,275
;   strokeZoverride,250
;   originOffsetXoverride,0
;   originOffsetYoverride,0
;   originOffsetZoverride,0
;   homeXdirOverride,-1
;   homeYdirOverride,-1
;   homeZdirOverride,-1
;   flipXoverride,1
;   flipYoverride,-1
;   flipZoverride,1
;   startingGcode,G28 ; home all axes
;   layerChangeGcode,
;   toolChangeGcode,
;   endingGcode,M104 S0 ; turn off extruder,M140 S0 ; turn off bed,M106 S0 ; turn off fans,G28 X0 ; home X axis,M84 ; disable motors
;   createX3G,0
;   celebration,0
;   celebrationSong,Random Song
;   createMB5G,0
;   postProcessing,
;   defaultSpeed,3600
;   outlineUnderspeed,0.5
;   solidInfillUnderspeed,0.8
;   supportUnderspeed,0.8
;   rapidXYspeed,4800
;   rapidZspeed,1000
;   minBridgingArea,50
;   bridgingExtrusionMultiplier,1
;   bridgingSpeedMultiplier,1
;   filamentDiameter,2.89
;   filamentPricePerKg,46
;   useMinPrintHeight,0
;   minPrintHeight,26.4
;   useMaxPrintHeight,0
;   maxPrintHeight,0
;   useDiaphragm,0
;   diaphragmLayerInterval,20
;   robustSlicing,1
;   mergeAllIntoSolid,0
;   onlyRetractWhenCrossingOutline,1
;   retractBetweenLayers,1
;   useRetractionMinTravel,0
;   retractionMinTravel,3
;   useRetractionOozeRate,0
;   retractionOozeRate,100
;   onlyWipeOutlines,1
;   toolChangeRetractionDistance,12
;   toolChangeExtraRestartDistance,-0.5
;   toolChangeRetractionSpeed,600
;   allowThinWallGapFill,1
;   thinWallAllowedOverlapPercentage,10
;   horizontalSizeCompensation,0
G90
M82
M106 S0
M140 S90
M190 S90
M104 S230 T0
M109 S230 T0
G28 ; home all axes
G92 E0
G1 E-1.7 F1800
G1 Z0.09 F1000
; layer 1, Z = 0.09
T0
; tool H0.1 W0.42
G1 X82.74 Y60.076 F4800
G1 E0 F540
G92 E0
G1 X82.975 Y59.679 E0.003 F1800
G1 X82.987 Y59.659 E0.0031
G1 X83.516 Y58.9 E0.009
G1 X83.529 Y58.882 E0.0092
G1 X83.82 Y58.523 E0.0121
G1 X83.835 Y58.506 E0.0123
G1 X84.465 Y57.834 E0.0182
G1 X84.481 Y57.819 E0.0183
G1 X84.815 Y57.511 E0.0212
G1 X84.832 Y57.496 E0.0214
G1 X85.21 Y57.195 E0.0245
G1 X85.656 Y56.681 E0.0288
G1 X85.664 Y56.672 E0.0289
G1 X85.831 Y56.495 E0.0304
G1 X85.839 Y56.486 E0.0305
G1 X86.571 Y55.765 E0.0371
G1 X86.581 Y55.755 E0.0372
G1 X86.789 Y55.568 E0.039
G1 X86.8 Y55.559 E0.0391
G1 X87.607 Y54.893 E0.0458
G1 X87.618 Y54.885 E0.0459
G1 X87.842 Y54.716 E0.0477
G1 X87.853 Y54.708 E0.0477
G1 X88.716 Y54.117 E0.0544
G1 X88.728 Y54.109 E0.0545
G1 X88.965 Y53.961 E0.0563
G1 X88.977 Y53.954 E0.0564
G1 X89.472 Y53.677 E0.06
G1 X89.444 Y53.566 E0.0608
G1 X89.44 Y53.544 E0.0609
G1 X89.295 Y52.704 E0.0664
G1 X89.291 Y52.662 E0.0666
G1 X89.259 Y51.827 E0.072
G1 X89.26 Y51.785 E0.0723
G1 X89.354 Y50.792 E0.0787
G1 X89.358 Y50.764 E0.0788
G1 X89.458 Y50.221 E0.0824
G1 X89.464 Y50.194 E0.0825
G1 X89.642 Y49.548 E0.0868
G1 X89.65 Y49.524 E0.087
G1 X89.821 Y49.054 E0.0902
G1 X89.83 Y49.031 E0.0904
G1 X90.097 Y48.446 E0.0945
G1 X90.108 Y48.423 E0.0946
G1 X90.352 Y47.985 E0.0978
G1 X90.365 Y47.963 E0.098
G1 X90.768 Y47.356 E0.1027
G1 X90.79 Y47.327 E0.1029
G1 X91.255 Y46.775 E0.1075
G1 X91.28 Y46.749 E0.1078
G1 X92.003 Y46.068 E0.1141
G1 X92.04 Y46.038 E0.1144
G1 X92.824 Y45.495 E0.1205
G1 X92.865 Y45.471 E0.1208
G1 X93.828 Y45 E0.1277
G1 X93.862 Y44.986 E0.1279
G1 X94.569 Y44.739 E0.1327
G1 X94.605 Y44.729 E0.133
G1 X95.622 Y44.504 E0.1396
G1 X95.637 Y44.501 E0.1397
G1 X95.839 Y44.466 E0.1411
G1 X95.899 Y44.017 E0.1439
G1 X95.902 Y43.996 E0.1441
G1 X95.985 Y43.583 E0.1468
G1 X95.99 Y43.562 E0.1469
G1 X96.146 Y42.987 E0.1507
G1 X96.154 Y42.963 E0.1509
G1 X96.324 Y42.488 E0.1541
G1 X96.333 Y42.465 E0.1543
G1 X96.59 Y41.897 E0.1583
G1 X96.601 Y41.875 E0.1584
G1 X96.837 Y41.445 E0.1616
G1 X96.85 Y41.424 E0.1617
G1 X97.184 Y40.913 E0.1656
G1 X97.197 Y40.895 E0.1658
G1 X97.461 Y40.547 E0.1686
G1 X97.475 Y40.53 E0.1687
G1 X97.853 Y40.096 E0.1724
G1 X97.869 Y40.08 E0.1726
G1 X98.182 Y39.769 E0.1754
G1 X98.198 Y39.754 E0.1755
G1 X98.759 Y39.269 E0.1803
G1 X98.788 Y39.247 E0.1805
G1 X99.392 Y38.836 E0.1852
G1 X99.423 Y38.817 E0.1854
G1 X100.38 Y38.317 E0.1923
G1 X100.426 Y38.298 E0.1926
G1 X101.368 Y37.981 E0.199
G1 X101.416 Y37.969 E0.1993
G1 X102.786 Y37.737 E0.2082
G1 X102.841 Y37.732 E0.2086
G1 X103.956 Y37.742 E0.2157
G1 X104.011 Y37.747 E0.2161
G1 X105.201 Y37.97 E0.2238
G1 X105.247 Y37.982 E0.2241
G1 X106.139 Y38.291 E0.2302
G1 X106.182 Y38.31 E0.2305
G1 X107.047 Y38.764 E0.2367
G1 X107.073 Y38.779 E0.2369
G1 X107.579 Y39.11 E0.2408
G1 X107.604 Y39.128 E0.241
G1 X108.124 Y39.544 E0.2452
G1 X108.139 Y39.557 E0.2454
G1 X108.441 Y39.832 E0.248
G1 X108.455 Y39.846 E0.2481
G1 X108.621 Y40.019 E0.2497
G1 X109.051 Y39.659 E0.2532
G1 X109.078 Y39.639 E0.2535
G1 X110.021 Y39.009 E0.2607
G1 X110.07 Y38.982 E0.2611
G1 X111.09 Y38.536 E0.2682
G1 X111.143 Y38.518 E0.2686
G1 X112.413 Y38.211 E0.2769
G1 X112.463 Y38.203 E0.2772
G1 X113.467 Y38.125 E0.2837
G1 X113.517 Y38.125 E0.284
G1 X114.392 Y38.196 E0.2896
G1 X114.41 Y38.198 E0.2898
G1 X114.756 Y38.246 E0.292
G1 X114.773 Y38.249 E0.2921
G1 X115.366 Y38.364 E0.296
G1 X115.392 Y38.37 E0.2961
G1 X115.894 Y38.512 E0.2995
G1 X115.919 Y38.52 E0.2996
G1 X116.545 Y38.754 E0.3039
G1 X116.568 Y38.763 E0.3041
G1 X117.021 Y38.975 E0.3073
G1 X117.043 Y38.986 E0.3074
G1 X117.673 Y39.343 E0.3121
G1 X117.693 Y39.356 E0.3122
G1 X118.093 Y39.624 E0.3153
G1 X118.112 Y39.638 E0.3155
G1 X118.686 Y40.091 E0.3202
G1 X118.706 Y40.108 E0.3203
G1 X119.094 Y40.471 E0.3237
G1 X119.113 Y40.49 E0.3239
G1 X119.559 Y40.984 E0.3282
G1 X119.572 Y40.998 E0.3283
G1 X119.806 Y41.29 E0.3307
G1 X119.817 Y41.305 E0.3308
G1 X120.16 Y41.789 E0.3346
G1 X120.168 Y41.802 E0.3347
G1 X120.332 Y42.057 E0.3366
G1 X120.34 Y42.07 E0.3367
G1 X120.59 Y42.507 E0.3399
G1 X120.596 Y42.518 E0.34
G1 X120.71 Y42.737 E0.3416
G1 X120.716 Y42.748 E0.3417
G1 X120.991 Y43.329 E0.3458
G1 X120.999 Y43.347 E0.3459
G1 X121.14 Y43.698 E0.3484
G1 X121.147 Y43.716 E0.3485
G1 X121.377 Y44.405 E0.3531
G1 X121.382 Y44.421 E0.3532
G1 X121.471 Y44.743 E0.3554
G1 X121.475 Y44.759 E0.3555
G1 X121.623 Y45.431 E0.3599
G1 X121.627 Y45.455 E0.36
G1 X121.694 Y45.921 E0.3631
G1 X121.697 Y45.944 E0.3632
G1 X121.735 Y46.504 E0.3668
G1 X121.983 Y46.574 E0.3685
G1 X122.115 Y46.512 E0.3694
G1 X122.133 Y46.504 E0.3695
G1 X122.499 Y46.36 E0.372
G1 X122.518 Y46.353 E0.3722
G1 X123.191 Y46.135 E0.3767
G1 X123.22 Y46.127 E0.3769
G1 X123.812 Y45.996 E0.3808
G1 X123.841 Y45.99 E0.381
G1 X123.978 Y45.974 E0.3818
G1 X123.976 Y45.94 E0.3821
G1 X123.976 Y45.936 E0.3821
G1 X123.971 Y45.849 E0.3826
G1 X123.971 Y45.844 E0.3827
G1 X123.92 Y44.459 E0.3915
G1 X123.92 Y44.454 E0.3916
G1 X123.918 Y44.354 E0.3922
G1 X123.918 Y44.349 E0.3922
G1 X123.91 Y42.834 E0.4019
G1 X123.91 Y42.818 E0.402
G1 X123.924 Y42.506 E0.404
G1 X123.925 Y42.491 E0.4041
G1 X124.011 Y41.569 E0.4101
G1 X124.016 Y41.539 E0.4103
G1 X124.13 Y40.942 E0.4142
G1 X124.137 Y40.913 E0.4144
G1 X124.376 Y40.102 E0.4198
G1 X124.383 Y40.079 E0.4199
G1 X124.555 Y39.628 E0.423
G1 X124.564 Y39.606 E0.4232
G1 X124.884 Y38.923 E0.428
G1 X124.895 Y38.903 E0.4281
G1 X125.118 Y38.504 E0.4311
G1 X125.13 Y38.485 E0.4312
G1 X125.528 Y37.882 E0.4358
G1 X125.539 Y37.866 E0.436
G1 X125.773 Y37.555 E0.4384
G1 X125.785 Y37.54 E0.4386
G1 X126.241 Y37.006 E0.4431
G1 X126.252 Y36.994 E0.4432
G1 X126.479 Y36.754 E0.4453
G1 X126.491 Y36.743 E0.4454
G1 X127.046 Y36.215 E0.4503
G1 X127.059 Y36.203 E0.4504
G1 X127.335 Y35.97 E0.4527
G1 X127.349 Y35.959 E0.4528
G1 X127.961 Y35.498 E0.4577
G1 X127.977 Y35.487 E0.4579
G1 X128.292 Y35.278 E0.4603
G1 X128.308 Y35.268 E0.4604
G1 X128.974 Y34.881 E0.4653
G1 X128.991 Y34.872 E0.4655
G1 X129.323 Y34.705 E0.4678
G1 X129.34 Y34.697 E0.468
G1 X129.999 Y34.412 E0.4726
G1 X130.014 Y34.406 E0.4727
G1 X130.309 Y34.296 E0.4747
G1 X130.324 Y34.291 E0.4748
G1 X131.274 Y33.988 E0.4812
G1 X131.317 Y33.978 E0.4814
G1 X132.205 Y33.829 E0.4872
G1 X132.249 Y33.825 E0.4875
G1 X133.361 Y33.799 E0.4946
G1 X133.384 Y33.799 E0.4948
G1 X133.848 Y33.822 E0.4977
G1 X133.871 Y33.824 E0.4979
G1 X134.618 Y33.917 E0.5027
G1 X134.638 Y33.92 E0.5028
G1 X135.036 Y33.996 E0.5054
G1 X135.055 Y34 E0.5056
G1 X135.708 Y34.168 E0.5099
G1 X135.734 Y34.176 E0.51
G1 X136.25 Y34.358 E0.5135
G1 X136.275 Y34.368 E0.5137
G1 X136.917 Y34.658 E0.5182
G1 X136.941 Y34.67 E0.5184
G1 X137.411 Y34.934 E0.5219
G1 X137.434 Y34.948 E0.522
G1 X138.034 Y35.355 E0.5267
G1 X138.056 Y35.37 E0.5268
G1 X138.469 Y35.704 E0.5302
G1 X138.489 Y35.722 E0.5304
G1 X139.001 Y36.212 E0.535
G1 X139.019 Y36.231 E0.5351
G1 X139.357 Y36.611 E0.5384
G1 X139.373 Y36.631 E0.5385
G1 X139.78 Y37.171 E0.5429
G1 X139.794 Y37.191 E0.543
G1 X140.056 Y37.6 E0.5461
G1 X140.068 Y37.621 E0.5463
G1 X140.352 Y38.15 E0.5501
G1 X140.358 Y38.163 E0.5502
G1 X140.485 Y38.429 E0.5521
G1 X140.491 Y38.442 E0.5522
G1 X140.787 Y39.143 E0.5571
G1 X140.799 Y39.179 E0.5573
G1 X141.009 Y39.916 E0.5622
G1 X141.018 Y39.953 E0.5625
G1 X141.196 Y41.087 E0.5698
G1 X141.199 Y41.103 E0.5699
G1 X141.232 Y41.424 E0.572
G1 X141.234 Y41.44 E0.5721
G1 X141.274 Y42.174 E0.5768
G1 X141.274 Y42.187 E0.5769
G1 X141.278 Y42.442 E0.5785
G1 X141.278 Y42.454 E0.5786
G1 X141.19 Y45.779 E0.5999
G1 X141.186 Y47.016 E0.6078
G1 X141.198 Y47.491 E0.6109
G1 X142.49 Y47.777 E0.6193
G1 X144.304 Y48.147 E0.6312
G1 X146.622 Y48.586 E0.6463
G1 X146.497 Y47.331 E0.6544
G1 X146.496 Y47.326 E0.6544
G1 X146.487 Y47.217 E0.6551
G1 X146.487 Y47.212 E0.6551
G1 X146.405 Y45.94 E0.6633
G1 X146.404 Y45.936 E0.6633
G1 X146.4 Y45.849 E0.6639
G1 X146.4 Y45.844 E0.6639
G1 X146.348 Y44.452 E0.6728
G1 X146.348 Y44.446 E0.6729
G1 X146.346 Y44.332 E0.6736
G1 X146.346 Y44.326 E0.6736
G1 X146.345 Y42.6 E0.6847
G1 X146.345 Y42.58 E0.6848
G1 X146.37 Y42.186 E0.6873
G1 X146.372 Y42.166 E0.6875
G1 X146.465 Y41.416 E0.6923
G1 X146.469 Y41.391 E0.6925
G1 X146.574 Y40.891 E0.6957
G1 X146.58 Y40.866 E0.6959
G1 X146.804 Y40.102 E0.701
G1 X146.812 Y40.079 E0.7011
G1 X146.983 Y39.628 E0.7042
G1 X146.993 Y39.606 E0.7044
G1 X147.313 Y38.923 E0.7092
G1 X147.323 Y38.903 E0.7094
G1 X147.547 Y38.504 E0.7123
G1 X147.559 Y38.485 E0.7124
G1 X147.956 Y37.882 E0.7171
G1 X147.967 Y37.867 E0.7172
G1 X148.202 Y37.555 E0.7197
G1 X148.214 Y37.54 E0.7198
G1 X148.67 Y37.006 E0.7243
G1 X148.681 Y36.994 E0.7244
G1 X148.908 Y36.755 E0.7265
G1 X148.919 Y36.743 E0.7266
G1 X149.474 Y36.215 E0.7315
G1 X149.488 Y36.203 E0.7316
G1 X149.764 Y35.97 E0.734
G1 X149.778 Y35.959 E0.7341
G1 X150.39 Y35.498 E0.739
G1 X150.405 Y35.487 E0.7391
G1 X150.72 Y35.278 E0.7415
G1 X150.736 Y35.268 E0.7416
G1 X151.403 Y34.881 E0.7466
G1 X151.419 Y34.872 E0.7467
G1 X151.751 Y34.705 E0.7491
G1 X151.768 Y34.697 E0.7492
G1 X152.428 Y34.412 E0.7538
G1 X152.443 Y34.406 E0.7539
G1 X152.738 Y34.296 E0.7559
G1 X152.753 Y34.291 E0.756
G1 X153.702 Y33.988 E0.7624
G1 X153.746 Y33.978 E0.7627
G1 X154.633 Y33.829 E0.7684
G1 X154.678 Y33.825 E0.7687
G1 X155.789 Y33.799 E0.7758
G1 X155.812 Y33.799 E0.776
G1 X156.277 Y33.822 E0.779
G1 X156.3 Y33.824 E0.7791
G1 X157.046 Y33.917 E0.7839
G1 X157.066 Y33.92 E0.7841
G1 X157.464 Y33.996 E0.7867
G1 X157.484 Y34 E0.7868
G1 X158.136 Y34.168 E0.7911
G1 X158.162 Y34.176 E0.7913
G1 X158.678 Y34.358 E0.7948
G1 X158.703 Y34.368 E0.7949
G1 X159.345 Y34.658 E0.7995
G1 X159.369 Y34.67 E0.7996
G1 X159.84 Y34.934 E0.8031
G1 X159.863 Y34.948 E0.8033
G1 X160.463 Y35.355 E0.8079
G1 X160.485 Y35.371 E0.8081
G1 X160.898 Y35.704 E0.8115
G1 X160.917 Y35.722 E0.8116
G1 X161.43 Y36.212 E0.8162
G1 X161.447 Y36.231 E0.8163
G1 X161.785 Y36.611 E0.8196
G1 X161.801 Y36.63 E0.8198
G1 X162.209 Y37.171 E0.8241
G1 X162.223 Y37.191 E0.8243
G1 X162.484 Y37.6 E0.8274
G1 X162.497 Y37.621 E0.8275
G1 X162.78 Y38.15 E0.8314
G1 X162.787 Y38.163 E0.8315
G1 X162.914 Y38.429 E0.8333
G1 X162.92 Y38.443 E0.8334
G1 X163.201 Y39.11 E0.8381
G1 X163.213 Y39.143 E0.8383
G1 X163.411 Y39.809 E0.8427
G1 X163.419 Y39.843 E0.843
G1 X163.517 Y40.386 E0.8465
G1 X163.518 Y40.391 E0.8465
G1 X163.534 Y40.486 E0.8472
G1 X163.535 Y40.491 E0.8472
G1 X163.63 Y41.126 E0.8513
G1 X163.632 Y41.141 E0.8514
G1 X163.662 Y41.437 E0.8533
G1 X163.663 Y41.452 E0.8534
G1 X163.702 Y42.174 E0.858
G1 X163.703 Y42.187 E0.8581
G1 X163.706 Y42.442 E0.8597
G1 X163.706 Y42.454 E0.8598
G1 X163.619 Y45.779 E0.8811
G1 X163.614 Y47.016 E0.889
G1 X163.627 Y47.491 E0.8921
G1 X164.919 Y47.777 E0.9005
G1 X166.741 Y48.149 E0.9125
G1 X169.051 Y48.593 E0.9275
G1 X168.925 Y47.332 E0.9356
G1 X168.925 Y47.326 E0.9357
G1 X168.916 Y47.217 E0.9364
G1 X168.915 Y47.212 E0.9364
G1 X168.833 Y45.94 E0.9446
G1 X168.833 Y45.936 E0.9446
G1 X168.828 Y45.849 E0.9451
G1 X168.828 Y45.844 E0.9452
G1 X168.777 Y44.459 E0.9541
G1 X168.777 Y44.454 E0.9541
G1 X168.775 Y44.354 E0.9547
G1 X168.775 Y44.349 E0.9548
G1 X168.767 Y42.834 E0.9645
G1 X168.767 Y42.818 E0.9646
G1 X168.781 Y42.506 E0.9666
G1 X168.782 Y42.491 E0.9667
G1 X168.869 Y41.569 E0.9726
G1 X168.873 Y41.539 E0.9728
G1 X168.987 Y40.942 E0.9767
G1 X168.995 Y40.913 E0.9769
G1 X169.233 Y40.102 E0.9823
G1 X169.241 Y40.079 E0.9824
G1 X169.412 Y39.628 E0.9855
G1 X169.421 Y39.606 E0.9857
G1 X169.742 Y38.923 E0.9905
G1 X169.752 Y38.903 E0.9906
G1 X169.975 Y38.504 E0.9936
G1 X169.987 Y38.485 E0.9937
G1 X170.385 Y37.882 E0.9983
G1 X170.396 Y37.866 E0.9985
G1 X170.63 Y37.555 E1.001
G1 X170.642 Y37.54 E1.0011
G1 X171.098 Y37.006 E1.0056
G1 X171.109 Y36.994 E1.0057
G1 X171.336 Y36.755 E1.0078
G1 X171.348 Y36.743 E1.0079
